resources/SLDS/icons/utility/spacer.svg

<svg xmlns="http://www.w3.org/2000/svg" height="52" width="52" viewBox="0 0 52 52" fill="#fff"><path d="M3 1v16a2 2 0 0 0 2 2h42a2 2 0 0 0 2-2V1h-4v14H7V1Zm46 50V35a2 2 0 0 0-2-2H5a2 2 0 0 0-2 2v16h4V37h38v14ZM12 28H4v-4h8Zm4 0h8v-4h-8Zm20 0h-8v-4h8Zm4 0h8v-4h-8Z"/></svg>

<svg xmlns="http://www.w3.org/2000/svg" width="52" height="52" viewBox="0 0 52 52"><path d="M3,1V17a2,2,0,0,0,2,2H47a2,2,0,0,0,2-2V1H45V15H7V1ZM49,51V35a2,2,0,0,0-2-2H5a2,2,0,0,0-2,2V51H7V37H45V51ZM12,28H4V24h8Zm4,0h8V24H16Zm20,0H28V24h8Zm4,0h8V24H40Z" fill="#fff" fill-rule="evenodd"/></svg>
